uploads/global/teams_09.svg

<svg height="40" viewBox="0 0 40 40" width="40" xmlns="http://www.w3.org/2000/svg"><g fill="#04de47" fill-rule="evenodd" transform="translate(2.534351 5.064103)"><path d="m30.8919695 2.76801128c.253345.95050911.3795125 1.93038991.3752061 2.91404 0 10.06206052-16.3442054 21.00057742-16.3442054 21.00057742-4.3856772-3.0591082-8.35436147-6.6757091-11.80605917-10.75868 4.17686829 7.930581 14.64852967 15.0203605 14.64852967 15.0203605s16.3442054-10.9385169 16.3442054-21.00071946c.1762071-2.77571749-1.0274528-5.45993862-3.2176766-7.17557846z" opacity=".15"/><path d="m26.2928522 1.42051282c4.9743234 0 7.8167939 3.55128205 7.8167939 8.52307692 0 10.06191846-16.3442054 21.00057746-16.3442054 21.00057746s-16.34420545-11.0569877-16.34420545-21.00057746c0-4.97179487 2.84247051-8.52307692 7.8167939-8.52307692 4.91505785 0 8.52741155 5.68205128 8.52741155 5.68205128s3.671477-5.68205128 8.5274115-5.68205128zm0-1.42051282c-3.8323609 0-6.9168677 2.87937949-8.521016 4.75729744-1.592352-1.88047488-4.6610831-4.75729744-8.53380705-4.75729744-5.52562054 0-9.23802915 3.99618667-9.23802915 9.94358974 0 10.56435386 16.2614895 21.68526466 16.9539153 22.16667646l.8072617.5615287.8101041-.4608144c.6925679-.4767241 16.9596002-11.581441 16.9596002-22.26739076 0-5.94754512-3.7124086-9.94358974-9.2380291-9.94358974z" fill-rule="nonzero"/></g></svg>

<?xml version="1.0" encoding="UTF-8"?>
<svg width="40px" height="40px" viewBox="0 0 40 40" version="1.1" xmlns="http://www.w3.org/2000/svg" xmlns:xlink="http://www.w3.org/1999/xlink">
    <!-- Generator: Sketch 52.4 (67378) - http://www.bohemiancoding.com/sketch -->
    <title>assets/homepage/teams_09</title>
    <desc>Created with Sketch.</desc>
    <g id="Page-1" stroke="none" stroke-width="1" fill="none" fill-rule="evenodd">
        <g id="Wunder-Careers-03-Teams" transform="translate(-41.000000, -4111.000000)" fill="#04DE47">
            <g id="Enginiering-Copy-6" transform="translate(10.000000, 3865.000000)">
                <g id="Group-20" transform="translate(31.000000, 246.000000)">
                    <g id="heart" transform="translate(2.534351, 5.064103)">
                        <path d="M30.8919695,2.76801128 C31.1453145,3.71852039 31.271482,4.69840119 31.2671756,5.68205128 C31.2671756,15.7441118 14.9229702,26.6826287 14.9229702,26.6826287 C10.537293,23.6235205 6.56860873,20.0069196 3.11691103,15.9239487 C7.29377932,23.8545297 17.7654407,30.9443092 17.7654407,30.9443092 C17.7654407,30.9443092 34.1096461,20.0057923 34.1096461,9.94358974 C34.2858532,7.16787225 33.0821933,4.48365112 30.8919695,2.76801128 Z" id="Path" opacity="0.149999991"></path>
                        <path d="M26.2928522,1.42051282 C31.2671756,1.42051282 34.1096461,4.97179487 34.1096461,9.94358974 C34.1096461,20.0055082 17.7654407,30.9441672 17.7654407,30.9441672 C17.7654407,30.9441672 1.42123525,19.8871795 1.42123525,9.94358974 C1.42123525,4.97179487 4.26370576,1.42051282 9.23802915,1.42051282 C14.153087,1.42051282 17.7654407,7.1025641 17.7654407,7.1025641 C17.7654407,7.1025641 21.4369177,1.42051282 26.2928522,1.42051282 Z M26.2928522,0 C22.4604913,0 19.3759845,2.87937949 17.7718362,4.75729744 C16.1794842,2.87682256 13.1107531,0 9.23802915,0 C3.71240861,0 0,3.99618667 0,9.94358974 C0,20.5079436 16.2614895,31.6288544 16.9539153,32.1102662 L17.761177,32.6717949 L18.5712811,32.2109805 C19.263849,31.7342564 35.5308813,20.6295395 35.5308813,9.94358974 C35.5308813,3.99604462 31.8184727,0 26.2928522,0 Z" id="Shape" fill-rule="nonzero"></path>
                    </g>
                </g>
            </g>
        </g>
    </g>
</svg>
